icon-themes/sifr_svg/cmd/sc_flowchartshapes.flowchart-sort.svg

<svg viewBox="0 0 16 16" xmlns="http://www.w3.org/2000/svg"><g fill="#555753"><path d="m8 1.4140625-5.5859375 5.5859375h11.1718755zm-5.5859375 7.5859375 5.5859375 5.585938 5.585938-5.585938z" opacity=".35"/><path d="m8 0-8 8 8 8 8-8zm0 1.4140625 5.585938 5.5859375h-11.1718755zm-5.5859375 7.5859375h11.1718755l-5.585938 5.585938z"/></g></svg>

<svg xmlns="http://www.w3.org/2000/svg" viewBox="0 0 16 16">
  <path
     style="opacity:0.35;fill:#555753"
     d="M 8 1.4140625 L 2.4140625 7 L 13.585938 7 L 8 1.4140625 z M 2.4140625 9 L 8 14.585938 L 13.585938 9 L 2.4140625 9 z "
     />
  <path
     style="fill:#555753"
     d="M 8 0 L 0 8 L 8 16 L 16 8 L 8 0 z M 8 1.4140625 L 13.585938 7 L 2.4140625 7 L 8 1.4140625 z M 2.4140625 9 L 13.585938 9 L 8 14.585938 L 2.4140625 9 z "
     />
</svg>
